X:235
T:B235-  In sad and ashy weeds
Q:1/4=120
L:1/4
M:6/4
K:C
G|G2GA2B|c3e3|f2Ac2E|D2CC2:|c|\
G2GA3/2B/2c|E2EF3/2G/2A|D2EF3/2B/2A|\
G3zzA||G2FE2D|F2GA2B|c2ED2C|.(C3C2)|]

